public/assets/images/icons/black/blubber.svg

<svg xmlns="http://www.w3.org/2000/svg" viewBox="0 0 54 54"><path d="M41 31a10 10 0 1 0 10 10 10 10 0 0 0-10-10zm0 17a7 7 0 1 1 7-7 7 7 0 0 1-7 7z"/><path d="M33 26.83A12 12 0 1 0 23.2 13a14.72 14.72 0 0 0-5.2-1 15 15 0 1 0 15 15v-.17zM18 39a12 12 0 1 1 12-12 12 12 0 0 1-12 12zm8-24.65A9 9 0 1 1 35 24a8.63 8.63 0 0 1-2.39-.34A15 15 0 0 0 26 14.35z"/><path d="M22.21 17.06A10.71 10.71 0 0 0 18 16.2a10.87 10.87 0 0 0-9.78 6.25 1.29 1.29 0 0 0 .62 1.72 1.23 1.23 0 0 0 .55.13 1.3 1.3 0 0 0 1.18-.75 8.22 8.22 0 0 1 10.63-4.11 1.29 1.29 0 1 0 1-2.38zM8.5 25.7A1.3 1.3 0 0 0 7.2 27a10.48 10.48 0 0 0 .14 1.68 1.3 1.3 0 0 0 1.27 1.1h.21a1.3 1.3 0 0 0 1.08-1.5A7.8 7.8 0 0 1 9.8 27a1.3 1.3 0 0 0-1.3-1.3zM38.66 9.49a1.23 1.23 0 0 0-.66-1.6 7.72 7.72 0 0 0-10.64 5.92 1.21 1.21 0 0 0 1 1.39h.19a1.21 1.21 0 0 0 1.2-1A5.33 5.33 0 0 1 35 9.72a5.23 5.23 0 0 1 2.06.42 1.23 1.23 0 0 0 1.6-.65zm4.53 26.33A5.62 5.62 0 0 0 35.37 41a6.52 6.52 0 0 0 .07.88 1.13 1.13 0 0 0 1.11.95h.18a1.13 1.13 0 0 0 .94-1.29 3 3 0 0 1-.05-.52 3.39 3.39 0 0 1 3.38-3.4 3.27 3.27 0 0 1 1.31.27 1.12 1.12 0 1 0 .88-2.07z"/></svg>

<svg xmlns="http://www.w3.org/2000/svg" viewBox="0 0 54 54"><defs><style>.a{fill:#000000;}</style></defs><path class="a" d="M41,31A10,10,0,1,0,51,41,10,10,0,0,0,41,31Zm0,17a7,7,0,1,1,7-7A7,7,0,0,1,41,48Z"/><path class="a" d="M33,26.83A12,12,0,1,0,23.2,13,14.72,14.72,0,0,0,18,12,15,15,0,1,0,33,27C33,26.94,33,26.88,33,26.83ZM18,39A12,12,0,1,1,30,27,12,12,0,0,1,18,39Zm8-24.65A9,9,0,1,1,35,24a8.63,8.63,0,0,1-2.39-.34A15,15,0,0,0,26,14.35Z"/><path class="a" d="M22.21,17.06A10.71,10.71,0,0,0,18,16.2a10.87,10.87,0,0,0-9.78,6.25,1.29,1.29,0,0,0,.62,1.72,1.23,1.23,0,0,0,.55.13,1.3,1.3,0,0,0,1.18-.75A8.22,8.22,0,0,1,21.2,19.44a1.29,1.29,0,1,0,1-2.38Z"/><path class="a" d="M8.5,25.7A1.3,1.3,0,0,0,7.2,27a10.48,10.48,0,0,0,.14,1.68,1.3,1.3,0,0,0,1.27,1.1l.21,0A1.3,1.3,0,0,0,9.9,28.28,7.8,7.8,0,0,1,9.8,27,1.3,1.3,0,0,0,8.5,25.7Z"/><path class="a" d="M38.66,9.49A1.23,1.23,0,0,0,38,7.89a7.72,7.72,0,0,0-10.64,5.92,1.21,1.21,0,0,0,1,1.39l.19,0a1.21,1.21,0,0,0,1.2-1A5.33,5.33,0,0,1,35,9.72a5.23,5.23,0,0,1,2.06.42A1.23,1.23,0,0,0,38.66,9.49Z"/><path class="a" d="M43.19,35.82A5.62,5.62,0,0,0,35.37,41a6.52,6.52,0,0,0,.07.88,1.13,1.13,0,0,0,1.11.95l.18,0a1.13,1.13,0,0,0,.94-1.29,3,3,0,0,1-.05-.52A3.39,3.39,0,0,1,41,37.62a3.27,3.27,0,0,1,1.31.27,1.12,1.12,0,1,0,.88-2.07Z"/></svg>
